public/img/icons/lisaa-kuva.svg

<svg width="20" height="20" xmlns="http://www.w3.org/2000/svg" xmlns:xlink="http://www.w3.org/1999/xlink">
    <defs>
        <path d="M15 18H2V5h8V3H2C.9 3 0 3.9 0 5v13c0 1.1.9 2 2 2h13c1.1 0 2-.9 2-2v-8h-2v8zm-6.79-2.17l-1.96-2.36L3.5 17h11l-3.54-4.71-2.75 3.54zM17 3V0h-2v3h-3c.01.01 0 2 0 2h3v2.99c.01.01 2 0 2 0V5h3V3h-3z" id="a"/>
    </defs>
    <g fill="none" fill-rule="evenodd">
        <mask id="b" fill="#fff">
            <use xlink:href="#a"/>
        </mask>
        <use fill="#000" fill-rule="nonzero" xlink:href="#a"/>
        <g mask="url(#b)" fill="#575757">
            <path d="M0 0h20v20H0z"/>
        </g>
    </g>
</svg>

<?xml version="1.0" encoding="UTF-8"?>
<svg width="20px" height="20px" viewBox="0 0 20 20" version="1.1" xmlns="http://www.w3.org/2000/svg" xmlns:xlink="http://www.w3.org/1999/xlink">
    <!-- Generator: Sketch 61 (89581) - https://sketch.com -->
    <title>l</title>
    <desc>Created with Sketch.</desc>
    <defs>
        <path d="M15,18 L2,18 L2,5 L10,5 L10,3 L2,3 C0.9,3 0,3.9 0,5 L0,18 C0,19.1 0.9,20 2,20 L15,20 C16.1,20 17,19.1 17,18 L17,10 L15,10 L15,18 Z M8.21,15.83 L6.25,13.47 L3.5,17 L14.5,17 L10.96,12.29 L8.21,15.83 Z M17,3 L17,0 L15,0 L15,3 L12,3 C12.01,3.01 12,5 12,5 L15,5 L15,7.99 C15.01,8 17,7.99 17,7.99 L17,5 L20,5 L20,3 L17,3 Z" id="path-1"></path>
    </defs>
    <g id="l" stroke="none" stroke-width="1" fill="none" fill-rule="evenodd">
        <g id="Ikonit/lisää-kuva">
            <mask id="mask-2" fill="white">
                <use xlink:href="#path-1"></use>
            </mask>
            <use id="Mask" fill="#000000" fill-rule="nonzero" xlink:href="#path-1"></use>
            <g id="Värit/Tumma-harmaa" mask="url(#mask-2)" fill="#575757" fill-rule="evenodd">
                <rect id="Rectangle" x="0" y="0" width="20" height="20"></rect>
            </g>
        </g>
    </g>
</svg>
